build/img/sprite/tiktok-icon.svg

<svg width="29" height="28" viewBox="0 0 29 28" fill="none" xmlns="http://www.w3.org/2000/svg">
<g clip-path="url(#clip0_12_70)">
<path d="M25.2196 0H4.15187C2.29976 0 0.794922 1.51111 0.794922 3.37094V24.6427C0.794922 26.3863 2.29976 27.8974 4.15187 27.8974H25.3354C27.1875 27.8974 28.6924 26.3863 28.6924 24.5265V3.37094C28.5766 1.51111 27.0718 0 25.2196 0ZM22.673 12.2051C22.5572 12.2051 22.3257 12.2051 22.21 12.2051C20.5894 12.2051 18.9688 11.3915 18.0427 9.99658V17.6684C18.0427 20.8068 15.4961 23.3641 12.3706 23.3641C9.24518 23.3641 6.69853 20.8068 6.69853 17.6684C6.69853 14.5299 9.24518 11.9727 12.3706 11.9727C12.4864 11.9727 12.6021 11.9727 12.7179 11.9727V14.7624C12.6021 14.7624 12.4864 14.7624 12.3706 14.7624C10.75 14.7624 9.4767 16.041 9.4767 17.6684C9.4767 19.2957 10.75 20.5744 12.3706 20.5744C13.9912 20.5744 15.3803 19.2957 15.3803 17.6684V4.64957H18.0427C18.2742 7.0906 20.2421 8.95043 22.5572 9.06667L22.673 12.2051Z" fill="white"/>
</g>
<defs>
<clipPath id="clip0_12_70">
<rect width="27.8974" height="27.8974" fill="white" transform="translate(0.794922)"/>
</clipPath>
</defs>
</svg>

<svg width="29" height="28" fill="none" xmlns="http://www.w3.org/2000/svg"><g clip-path="url(#clip0_12_70)"><path d="M25.22 0H4.152A3.366 3.366 0 00.795 3.37v21.273c0 1.743 1.505 3.254 3.357 3.254h21.183a3.366 3.366 0 003.357-3.37V3.37C28.577 1.51 27.072 0 25.22 0zm-2.547 12.205h-.463c-1.62 0-3.241-.813-4.167-2.208v7.671c0 3.139-2.547 5.696-5.672 5.696-3.126 0-5.672-2.557-5.672-5.696 0-3.138 2.546-5.695 5.672-5.695h.347v2.79h-.347c-1.621 0-2.894 1.278-2.894 2.905 0 1.628 1.273 2.906 2.894 2.906 1.62 0 3.01-1.278 3.01-2.906V4.65h2.662c.231 2.44 2.2 4.3 4.514 4.417l.116 3.138z" fill="#fff"/></g><defs><clipPath id="clip0_12_70"><path fill="#fff" transform="translate(.795)" d="M0 0h27.897v27.897H0z"/></clipPath></defs></svg>
